app/dist/common/images/videndum-plc.svg

<svg height="18" viewBox="0 0 18 18" width="18" xmlns="http://www.w3.org/2000/svg"><path d="m0 0h18v18h-18z" fill="#f0f3fa"/><path d="m9.5 11h-1l-1.5-4h1l1 2.5 1-2.5h1zm-2.5-7h-3v2h1v-1h2zm0 9h-2v-1h-1v2h3zm4 1v-1h2v-1h1v2zm0-9v-1h3v2h-1v-1z" fill="#111216"/></svg>

<!-- by TradingView --><svg width="18" height="18" viewBox="0 0 18 18" xmlns="http://www.w3.org/2000/svg"><path fill="#F0F3FA" d="M0 0h18v18H0z"/><path d="M9.5 11H8.5L7 7h1l1 2.5L10 7h1l-1.5 4ZM7 4H4v2h1V5h2V4Zm0 9H5v-1H4v2h3v-1Zm4 1v-1h2v-1h1v2h-3Zm0-9V4h3v2h-1V5h-2Z" fill="#111216"/></svg>
